usr/share/icons/biglinux-icons-material/24/actions/paint-order-fms.svg

<svg width="24" height="24" version="1.1" xmlns="http://www.w3.org/2000/svg">
 <defs>
  <style id="current-color-scheme" type="text/css">.ColorScheme-Text { color:#363636; }</style>
 </defs>
 <path class="ColorScheme-Text" d="m17.514 15a9.5921 9.5921 0 0 1-2.5137 2.5137v6.4863h9v-9h-6.4863z" fill="currentColor" opacity=".65"/>
 <path class="ColorScheme-Text" d="m10 0.5c-5.2467 0-9.5 4.2533-9.5 9.5 0 3.618 2.0239 6.7629 5 8.3672v-12.867h12.867c-1.6043-2.9761-4.7492-5-8.3672-5zm4.5 14v3.8672c1.6363-0.8821 2.9851-2.2309 3.8672-3.8672h-3.8672z" fill="currentColor" opacity=".15"/>
 <path class="ColorScheme-Text" d="m10 0c-5.5169 0-10 4.4831-10 10 0 3.8969 2.242 7.2683 5.5 8.918v-1.1289c-2.6893-1.555-4.5-4.4544-4.5-7.7891 0-4.9765 4.0235-9 9-9 3.3346 0 6.234 1.8107 7.7891 4.5h1.1289c-1.6496-3.258-5.021-5.5-8.918-5.5zm7.7891 14.5c-0.78938 1.3652-1.9239 2.4997-3.2891 3.2891v1.1289c1.9036-0.96388 3.4541-2.5143 4.418-4.418h-1.1289z" fill="currentColor"/>
 <path class="ColorScheme-Text" d="m5.5 24v-18.5h18.5v9h-9.5v9.5z" fill="currentColor" opacity=".35"/>
 <path class="ColorScheme-Text" d="m5 5v19h1v-18h18v-1h-19zm9 9v10h1v-9h9v-1h-10z" fill="currentColor"/>
 <path d="m9 9v2h2v-2h-2zm4 0v2h2v-2h-2zm4 0v2h2v-2h-2zm4 0v2h2v-2h-2zm-12 4v2h2v-2h-2zm0 4v2h2v-2h-2zm0 4v2h2v-2h-2z" style="fill:currentColor" class="ColorScheme-Text" />
</svg>

<svg xmlns="http://www.w3.org/2000/svg" width="24" height="24"><defs><style id="current-color-scheme" type="text/css">.ColorScheme-Text{color:#dedede}</style></defs><path fill="currentColor" d="M17.514 15A9.592 9.592 0 0 1 15 17.514V24h9v-9h-6.486z" class="ColorScheme-Text" opacity=".65"/><path fill="currentColor" d="M10 .5a9.5 9.5 0 0 0-4.5 17.867V5.5h12.867A9.498 9.498 0 0 0 10 .5zm4.5 14v3.867a9.548 9.548 0 0 0 3.867-3.867H14.5z" class="ColorScheme-Text" opacity=".15"/><path fill="currentColor" d="M10 0C4.483 0 0 4.483 0 10c0 3.897 2.242 7.268 5.5 8.918v-1.129A8.981 8.981 0 0 1 1 10c0-4.977 4.024-9 9-9a8.982 8.982 0 0 1 7.79 4.5h1.128C17.268 2.242 13.897 0 10 0zm7.79 14.5a9.01 9.01 0 0 1-3.29 3.29v1.128a10.04 10.04 0 0 0 4.418-4.418h-1.129z" class="ColorScheme-Text"/><path fill="currentColor" d="M5.5 24V5.5H24v9h-9.5V24z" class="ColorScheme-Text" opacity=".35"/><path fill="currentColor" d="M5 5v19h1V6h18V5H5zm9 9v10h1v-9h9v-1H14z" class="ColorScheme-Text"/><path d="M9 9v2h2V9H9zm4 0v2h2V9h-2zm4 0v2h2V9h-2zm4 0v2h2V9h-2zM9 13v2h2v-2H9zm0 4v2h2v-2H9zm0 4v2h2v-2H9z" class="ColorScheme-Text" style="fill:currentColor"/></svg>
